X:57
T:(untitled)
T:John Malchair's Third Collection of Tunes
%%VWML:Malchair-3619-p57
F:https://www.vwml.org/record/Malchair/3619/p57
F:www.vwml.org/topics/historic-dance-and-tune-books/Malchair
Z:Eric Conrad Jan 2020
M:3/4
L:1/8
K:Eb
e2 | E4F2 | (G4A2) | .B2(B2G2) | A2F2z2 |
!p!(A4F2) | (A4F2) | D2DEFE | E2z2 :|
|: !f!B,=A, | B,2B2B2 | FGFEDC | B,2d2d2 | fedcB2 |
!p!(A4F2) | (A4F2) | D2DEFD | E2z2 :|
M:3/4
L:1/8
K:A
{g}a2 | (Ace)cec | !sfz![de]4B2 | GEGEc2 | A2A2 {g}a2 |
(Ace)cec | [de]4B2 | GFGFc2 | A2z2 :|
|: c2 | {e}d4A2 | {e}d4A2 | GBGBc2 | B2B2c2 |
{e}d4A2 | {e}d4A2 | G2BGEG | A2z2 :|
M:3/4
L:1/8
K:D
D/C/ | D2[df]2[df]2 | D2[df]2[df]2 | [Ag]4e2 | A,2[ce]2[ce]2 | A,2[ce]2[ce]2 | f4d2 :|
|: (A4F2) | (G4E2) | F2(FG)F2 | F2(FG)F2 | (A4F2) | G4E2 | F2FGFE | D2z2 :|



